X: 1715
T: O'CONNOR'S FAVORITE
M:C|
L:1/8
B:O'NEILL'S 1715
Z:Transcribed by A.LEE WORMAN
K:D
(3A-B-c|dAFA dfaf|gfef d2 A2|BdAd GdFd|FEED E2 (3A-B-c|
dAFA dfaf|gfef dcBA|BcdB BGEC|D2 D2 D2:|
|:(FG)|AFdA fdAF|GABG E3 f|gfed cdef|edcB A3 A|
(3d-e-d Ad (3f-g-f df|(3a-b-a fd A2 f2|gfed cABc|d2 d2 d2:|


